material/.icons/material/clock-out.svg

<svg xmlns="http://www.w3.org/2000/svg" viewBox="0 0 24 24"><path d="M18 1l1.8 1.79-4.01 4 1.42 1.42 4-4L23 6V1M12 8c-3.86 0-7 3.13-7 7a7 7 0 007 7c3.86 0 7-3.13 7-7a7 7 0 00-7-7m0 2.15c2.67 0 4.85 2.17 4.85 4.85A4.85 4.85 0 0112 19.85c-2.68 0-4.85-2.17-4.85-4.85A4.85 4.85 0 0112 10.15M11 12v3.69l3.19 1.84.75-1.3-2.44-1.41V12"/></svg>

<?xml version="1.0" encoding="UTF-8"?><!DOCTYPE svg PUBLIC "-//W3C//DTD SVG 1.1//EN" "http://www.w3.org/Graphics/SVG/1.1/DTD/svg11.dtd"><svg xmlns="http://www.w3.org/2000/svg" xmlns:xlink="http://www.w3.org/1999/xlink" version="1.1" id="mdi-clock-out" width="24" height="24" viewBox="0 0 24 24"><path d="M18,1L19.8,2.79L15.79,6.79L17.21,8.21L21.21,4.21L23,6V1M12,8C8.14,8 5,11.13 5,15A7,7 0 0,0 12,22C15.86,22 19,18.87 19,15A7,7 0 0,0 12,8M12,10.15C14.67,10.15 16.85,12.32 16.85,15A4.85,4.85 0 0,1 12,19.85C9.32,19.85 7.15,17.68 7.15,15A4.85,4.85 0 0,1 12,10.15M11,12V15.69L14.19,17.53L14.94,16.23L12.5,14.82V12" /></svg>
